app/assets/images/heroicons/micro/presentation-chart-bar.svg

<svg width="16" height="16" viewBox="0 0 16 16" fill="none" xmlns="http://www.w3.org/2000/svg">
<path fill-rule="evenodd" clip-rule="evenodd" d="M1.75 2C1.33579 2 1 2.33579 1 2.75C1 3.16421 1.33579 3.5 1.75 3.5H2V9C2 10.1046 2.89543 11 4 11H4.04277L3.03851 14.0128C2.90752 14.4057 3.11989 14.8305 3.51285 14.9615C3.90581 15.0925 4.33055 14.8801 4.46153 14.4871L4.62391 14H11.3761L11.5385 14.4871C11.6695 14.8801 12.0942 15.0925 12.4872 14.9615C12.8801 14.8305 13.0925 14.4057 12.9615 14.0128L11.9572 11H12C13.1046 11 14 10.1046 14 9V3.5H14.25C14.6642 3.5 15 3.16421 15 2.75C15 2.33579 14.6642 2 14.25 2H1.75ZM10.3761 11L10.8761 12.5H5.12391L5.62391 11H10.3761ZM5.25 7C4.83579 7 4.5 7.33579 4.5 7.75V8.25C4.5 8.66421 4.83579 9 5.25 9C5.66421 9 6 8.66421 6 8.25V7.75C6 7.33579 5.66421 7 5.25 7ZM10 4.75C10 4.33579 10.3358 4 10.75 4C11.1642 4 11.5 4.33579 11.5 4.75V8.25C11.5 8.66421 11.1642 9 10.75 9C10.3358 9 10 8.66421 10 8.25V4.75ZM8 5.5C7.58579 5.5 7.25 5.83579 7.25 6.25V8.25C7.25 8.66421 7.58579 9 8 9C8.41421 9 8.75 8.66421 8.75 8.25V6.25C8.75 5.83579 8.41421 5.5 8 5.5Z" fill="black"/>
</svg>

<svg xmlns="http://www.w3.org/2000/svg" viewBox="0 0 16 16" fill="currentColor" aria-hidden="true" data-slot="icon">
  <path fill-rule="evenodd" d="M1.75 2a.75.75 0 0 0 0 1.5H2V9a2 2 0 0 0 2 2h.043l-1.004 3.013a.75.75 0 0 0 1.423.474L4.624 14h6.752l.163.487a.75.75 0 1 0 1.422-.474L11.957 11H12a2 2 0 0 0 2-2V3.5h.25a.75.75 0 0 0 0-1.5H1.75Zm8.626 9 .5 1.5H5.124l.5-1.5h4.752ZM5.25 7a.75.75 0 0 0-.75.75v.5a.75.75 0 0 0 1.5 0v-.5A.75.75 0 0 0 5.25 7ZM10 4.75a.75.75 0 0 1 1.5 0v3.5a.75.75 0 0 1-1.5 0v-3.5ZM8 5.5a.75.75 0 0 0-.75.75v2a.75.75 0 0 0 1.5 0v-2A.75.75 0 0 0 8 5.5Z" clip-rule="evenodd"/>
</svg>
